X:1
T:Benke, 87.87 D
T:Victor H. Benke, 1901
T:Benke, 87.87 D
T:Public Domain
C:Victor H. Benke, 1901
Z:Public Domain
%%score ( 1 2 ) ( 3 4 )
L:1/8
M:3/4
K:Bb
V:1 treble 
V:2 treble 
V:3 bass 
V:4 bass 
V:1
 [DF]>[DF] | [DB]3 [DB] [Fd]>[Ec] | [DB]2 [DF]2 [DB]>[FA] | [EG]3 [Ec] [EB]>[EG] | %4
 [DF]4 [DF]>[DF] | [DB]3 [DB] [Fd]>[Fd] | [Fc]2 [FA]2 [Ff]>[Fd] | [Fc]3 [=EB] [EA]>[EG] | F4 | %9
 [DF]>[DF] | [DB]3 [DB] [DF]>F | [EA]2 [EG]2 [EG]>[EG] | [=EG]3 [EG] [EA]>[EB] | [Fc]4 F>F | %14
 [Fd]3 [Bd] [Ae][_Af] | [Gf]2 [Ge]2 [EG][Gc] | [EB]3 [EA] [EG][EA] | [DB]4 |] %18
V:2
 x2 | x6 | x6 | x6 | x6 | x6 | x6 | x6 | F4 | x2 | x11/2 F/ | x6 | x6 | x4 F>F | x6 | x6 | x6 | %17
 x4 |] %18
V:3
 [B,,B,]>[B,,B,] | [B,,F,]3 [B,,F,] [B,,B,]>[B,,F,] | [B,,F,]2 [B,,B,]2 [B,,F,]>[D,B,] | %3
 [E,B,]3 [E,G,] [E,G,]>[E,B,] | [B,,B,]4 [B,,B,]>[B,,B,] | [B,,F,]3 [B,,F,] [B,,B,]>[B,,B,] | %6
 [C,A,]2 [C,C]2 [D,A,]>[B,,A,] | [C,A,]3 [C,G,] [C,C]>[C,B,] | [F,A,]4 | [B,,B,]>[B,,B,] | %10
 [B,,F,]3 [B,,F,] [B,,B,]>[D,B,] | [E,B,]2 [E,B,]2 [E,B,]>[E,B,] | [C,B,]3 [C,B,] [C,A,]>[C,G,] | %13
 [F,A,]4 [F,A,]>[F,A,] | [B,,B,]3 [B,,F,] [C,F,][D,B,] | [E,B,]2 [E,B,]2 [E,B,][E,E] | %16
 [F,C]3 [F,C] [F,B,]F, | [B,,F,]4 |] %18
V:4
 x2 | x6 | x6 | x6 | x6 | x6 | x6 | x6 | x4 | x2 | x6 | x6 | x6 | x6 | x6 | x6 | x5 F, | x4 |] %18

